src/images/mediaLogos/darkTheme/ArchDaily.svg

<svg width="76" height="39" viewBox="0 0 76 39" fill="none" xmlns="http://www.w3.org/2000/svg">
<path d="M49 34.959L36.1556 38.5075C35.8469 38.1067 35.541 37.7059 35.2364 37.3051C32.5002 33.6925 29.7676 30.0786 27.0386 26.4633C26.8507 26.2262 26.7385 25.9381 26.7166 25.6363C26.7006 18.3907 26.697 11.146 26.7059 3.90209C26.7059 3.85934 26.718 3.81525 26.7367 3.68833L39.5557 0.137207C40.2892 1.0978 41.0253 2.0624 41.7615 3.02967C44.0861 6.08914 46.4068 9.15084 48.7234 12.2148C48.898 12.435 49.0023 12.7027 49.0227 12.983C49.0387 20.2268 49.0423 27.4711 49.0334 34.7159C49.0272 34.7975 49.0161 34.8787 49 34.959ZM27.2925 4.31893C27.2925 4.38573 27.2724 4.45253 27.2724 4.51799C27.2724 11.492 27.2724 18.466 27.2724 25.4399C27.2838 25.6513 27.3578 25.8545 27.4848 26.0238C28.3755 27.2422 29.28 28.4531 30.1983 29.6564C32.197 32.2964 34.201 34.9341 36.2103 37.5696L36.3306 37.6845C36.3854 37.7099 36.4495 37.77 36.4936 37.758C39.1718 37.0098 41.8496 36.2576 44.527 35.5015L46.507 34.9577L48.4602 34.4607C48.4749 34.3177 48.4883 34.2523 48.4883 34.1868C48.4883 27.2289 48.4883 20.2709 48.4883 13.313C48.472 13.144 48.4389 12.977 48.3894 12.8146C48.3486 12.716 48.2989 12.6212 48.2411 12.5314C46.124 9.72399 44.0037 6.91836 41.8804 4.11452C41.0347 3.01097 40.181 1.92212 39.362 0.85331C36.0634 1.75913 32.8409 2.63421 29.6251 3.53335C28.8355 3.75513 28.0687 4.05974 27.2925 4.31893Z" fill="#ECECEC"/>
<path d="M23.419 25.534H22.1912C22.1912 23.7972 22.1912 22.0951 22.1912 20.3903C22.1912 19.2855 21.8732 18.9702 20.7683 18.9662H19.1223V25.534H17.9199V14.6588L19.1223 14.377V17.7397C19.7903 17.7397 20.4076 17.7277 21.0248 17.7397C22.5692 17.7744 23.4083 18.6148 23.4176 20.1445C23.427 21.9241 23.419 23.6996 23.419 25.534Z" fill="#ECECEC"/>
<path d="M55.8196 23.9342L56.859 23.6216V34.8721L55.9345 34.6049C55.9345 34.6437 55.9345 34.6824 55.9345 34.7212C55.1062 34.7212 54.2605 34.8281 53.4548 34.6945C52.386 34.5168 51.8316 33.7352 51.8115 32.657C51.7902 31.5468 51.7995 30.4379 51.8022 29.329C51.8022 27.8461 52.5971 27.0324 54.0908 26.9857C54.6399 26.9683 55.1903 26.9857 55.8142 26.9857V23.9342H55.8196ZM55.8089 28.2295C55.177 28.2295 54.6065 28.1961 54.036 28.2388C53.527 28.2776 53.1115 28.5608 53.0928 29.1006C53.0514 30.295 53.0393 31.492 53.0928 32.6838C53.1235 33.3264 53.5737 33.5869 54.342 33.5775C55.2451 33.5669 55.7728 33.2783 55.7929 32.6423C55.841 31.1874 55.8089 29.7325 55.8089 28.2295V28.2295Z" fill="#ECECEC"/>
<path d="M4.60618 25.2077C3.60951 25.7875 2.49394 25.7034 1.41311 25.3173C0.431139 24.9659 -0.0110814 23.9372 0.185312 22.7788C0.358994 21.7528 1.16728 21.03 2.27617 20.9685C2.98159 20.9285 3.69101 20.9605 4.45387 20.9605C4.45387 20.4916 4.49662 20.0707 4.44452 19.6606C4.36703 19.046 3.91947 18.8229 3.35166 18.8149C2.53135 18.8042 1.7097 18.8149 0.785182 18.8149L1.08178 17.7581C1.9582 17.7581 2.80122 17.7167 3.63757 17.7675C4.9816 17.849 5.74045 18.6746 5.74847 20.0213C5.76049 21.8396 5.74847 23.6579 5.74847 25.6419L4.60618 25.2077ZM4.44185 22.187C3.74044 22.187 3.08045 22.1589 2.42447 22.195C1.81525 22.2297 1.43983 22.5865 1.40509 23.2064C1.37303 23.7889 1.66294 24.2431 2.25079 24.2832C3.91546 24.3968 4.61419 24.4315 4.47391 22.4689C4.4699 22.4034 4.45922 22.338 4.44185 22.187Z" fill="#ECECEC"/>
<path d="M58.3325 27.9746C58.4206 27.6686 58.5102 27.3547 58.609 27.0087C59.5175 27.0087 60.406 26.9445 61.281 27.0247C62.569 27.1409 63.2704 27.9666 63.2851 29.2478C63.2944 30.8911 63.2984 32.5344 63.2771 34.1777C63.2771 34.4209 63.1167 34.6627 63.0098 34.9713C62.6531 34.7215 62.4554 34.5825 62.2563 34.4449V34.6346C61.4641 34.7028 60.6665 34.8524 59.8782 34.819C58.4861 34.7629 57.6805 33.8437 57.6965 32.4796C57.7126 31.1156 58.5703 30.2565 59.9584 30.2017C60.6171 30.175 61.2784 30.2017 61.9704 30.2017C61.9838 29.9345 62.0012 29.7381 62.0025 29.5444C62.0092 28.3861 61.6832 28.0681 60.4928 28.0641C59.8248 28.0641 59.1568 28.0641 58.4888 28.0561C58.45 28.0467 58.4126 28.0107 58.3325 27.9746ZM61.9397 31.4816C61.2156 31.4816 60.5275 31.4496 59.8462 31.4923C59.2703 31.5271 58.9844 31.9252 58.9591 32.4743C58.9337 32.9927 59.1675 33.3614 59.6939 33.519C61.2797 33.9947 62.0907 33.3708 61.9998 31.7368C61.9866 31.6503 61.9665 31.565 61.9397 31.4816V31.4816Z" fill="#ECECEC"/>
<path d="M74.3459 27.0142H75.7247C74.5997 30.6601 73.4895 34.2553 72.3713 37.8773H71.2731C71.3933 37.3656 71.4548 36.8379 71.6418 36.3609C72.084 35.2306 71.8916 34.1672 71.5082 33.0663C70.8896 31.2867 70.3432 29.4818 69.7714 27.6862C69.7046 27.4791 69.6525 27.2667 69.583 27.0182H70.8001L72.553 32.6748L72.7627 32.6682C73.2838 30.8018 73.8075 28.938 74.3459 27.0142Z" fill="#ECECEC"/>
<path d="M16.8957 19.4347L15.6932 19.7339C15.1829 18.7092 14.261 18.9323 13.422 19.0285C12.901 19.086 12.6204 19.4934 12.6137 20.0212C12.6004 21.09 12.587 22.1521 12.6137 23.2169C12.6351 23.9758 13.0266 24.3004 13.8161 24.3164C15.1522 24.3432 15.1522 24.3432 15.7253 23.4307L16.893 23.8582C16.8128 24.6438 16.3586 25.1942 15.6906 25.3091C14.7431 25.481 13.7741 25.4991 12.8208 25.3625C11.8856 25.2089 11.3913 24.414 11.3712 23.4561C11.3463 22.2136 11.3463 20.9711 11.3712 19.7286C11.3873 18.8067 11.9056 18.0118 12.8021 17.8902C13.7395 17.7723 14.6893 17.7958 15.6198 17.9597C16.3105 18.0759 16.8035 18.6143 16.8957 19.4347Z" fill="#ECECEC"/>
<path d="M8.06058 17.8499L10.7807 17.6963V18.8279C10.285 18.8279 9.80274 18.8172 9.32178 18.8279C8.53888 18.8493 8.18751 19.198 8.18483 19.9849C8.17548 21.8232 8.18483 23.6616 8.18483 25.5307H6.98242V17.703L8.08463 17.9541L8.06058 17.8499Z" fill="#ECECEC"/>
<path d="M67.5957 23.8834L68.7353 23.6162V34.7879H67.5957V23.8834Z" fill="#ECECEC"/>
<path d="M65.8975 34.8151H64.8955V27.0088H65.8975V34.8151Z" fill="#ECECEC"/>
<path d="M64.8867 24.6345V23.6338H65.9021V24.6345H64.8867Z" fill="#ECECEC"/>
<path d="M44.5197 35.5015C41.8423 36.255 39.1645 37.0072 36.4862 37.758C36.4421 37.7701 36.378 37.7099 36.3232 37.6846C36.3326 37.4173 36.3513 37.1501 36.3513 36.8829C36.3513 30.2608 36.3513 23.6377 36.3513 17.0138V16.1908C38.5156 15.5949 40.6359 15.0191 42.7495 14.4246C44.6292 13.8982 46.5023 13.3558 48.3781 12.812C48.4275 12.9744 48.4607 13.1414 48.4769 13.3103C48.4823 20.2683 48.4823 27.2262 48.4769 34.1842C48.4769 34.2497 48.4636 34.3178 48.4489 34.4581L46.4956 34.9551V30.2456L44.5157 30.78L44.5197 35.5015ZM46.4556 15.7619L40.6813 17.3651V22.1467L46.4556 20.5435V15.7619ZM38.5437 25.6097V30.3792L42.4261 29.3225V24.5435L38.5437 25.6097Z" fill="#ECECEC"/>
<path d="M36.2023 37.5696C34.1991 34.9323 32.1951 32.2946 30.1902 29.6564C29.2773 28.4513 28.3728 27.2405 27.4768 26.0238C27.3509 25.8528 27.2788 25.6481 27.2697 25.436C27.2617 18.462 27.2617 11.488 27.2697 4.51401C27.2697 4.44721 27.283 4.38041 27.2897 4.31494C30.1702 8.10922 33.047 11.9062 35.9204 15.7058C36.0984 15.9548 36.1963 16.2521 36.2009 16.5582C36.2125 23.5633 36.2129 30.5671 36.2023 37.5696ZM34.3425 21.4279C34.3425 20.1694 34.2357 19.0993 34.3652 18.0585C34.599 16.1801 33.056 15.3411 32.2784 14.0505C32.2076 15.4559 32.1996 16.828 32.2156 18.2001C32.2122 18.4169 32.2721 18.63 32.3879 18.8133C32.9811 19.6377 33.6024 20.4419 34.3425 21.4279Z" fill="#69768A"/>
<path d="M36.2032 37.5695C36.2032 30.5679 36.2032 23.5654 36.2032 16.562C36.1986 16.2559 36.1007 15.9586 35.9226 15.7096C33.0573 11.9047 30.1805 8.10771 27.292 4.31877C28.0682 4.05157 28.8351 3.75498 29.6247 3.53453C32.8405 2.6354 36.0629 1.76031 39.3615 0.854492C40.1805 1.9233 41.0342 3.01082 41.8706 4.11436C43.9966 6.91732 46.1169 9.72294 48.2313 12.5312C48.2891 12.621 48.3388 12.7158 48.3796 12.8145C46.5092 13.3489 44.6308 13.9007 42.751 14.427C40.6374 15.0216 38.5172 15.5974 36.3528 16.1933V17.0189C36.3528 23.6429 36.3528 30.2659 36.3528 36.8881C36.3528 37.1553 36.3341 37.4225 36.3248 37.6897L36.2032 37.5695Z" fill="#9EB0B8"/>
<path d="M44.5205 35.5015V30.78L46.5005 30.2456V34.9604L44.5205 35.5015Z" fill="#9EB0B8"/>
<path d="M46.4559 15.7622V20.5438L40.6816 22.147V17.3708L46.4559 15.7622Z" fill="#9EB0B8"/>
<path d="M38.5439 25.6098L42.4264 24.541V29.3173L38.5439 30.3794V25.6098Z" fill="#9EB0B8"/>
<path d="M34.3429 21.4279C33.6027 20.4459 32.9815 19.6416 32.3883 18.8146C32.2725 18.6313 32.2126 18.4182 32.2159 18.2014C32.1999 16.8293 32.2079 15.4572 32.2787 14.0518C33.0563 15.341 34.5994 16.18 34.3656 18.0598C34.236 19.0952 34.3429 20.1654 34.3429 21.4279Z" fill="#ECECEC"/>
</svg>

<svg fill="none" height="39" width="76" xmlns="http://www.w3.org/2000/svg"><path d="m49 34.959-12.844 3.548c-.31-.4-.615-.801-.92-1.202a8354.188 8354.188 0 0 1 -8.197-10.842 1.507 1.507 0 0 1 -.322-.827c-.016-7.245-.02-14.49-.011-21.734 0-.043.012-.087.03-.214l12.82-3.55c.733.96 1.47 1.924 2.206 2.892 2.324 3.06 4.645 6.12 6.961 9.185a1.4 1.4 0 0 1 .3.768c.016 7.244.02 14.488.01 21.733a2.012 2.012 0 0 1 -.033.243zm-21.707-30.64c0 .067-.02.134-.02.199v20.922c.01.211.085.415.212.584.89 1.218 1.795 2.43 2.713 3.632 1.999 2.64 4.003 5.278 6.012 7.914l.12.114c.055.026.12.086.164.074 2.678-.748 5.356-1.5 8.033-2.257l1.98-.543 1.953-.497c.015-.143.028-.209.028-.274v-20.874a2.549 2.549 0 0 0 -.099-.498 1.783 1.783 0 0 0 -.148-.284 5226.344 5226.344 0 0 0 -6.36-8.416c-.846-1.104-1.7-2.193-2.519-3.262-3.299.906-6.521 1.781-9.737 2.68-.79.222-1.556.527-2.332.786zm-3.874 21.215h-1.228v-5.144c0-1.105-.318-1.42-1.423-1.424h-1.646v6.568h-1.202v-10.875l1.202-.282v3.363c.668 0 1.286-.012 1.903 0 1.544.034 2.383.875 2.393 2.405.009 1.78.001 3.555.001 5.389zm32.4-1.6 1.04-.312v11.25l-.925-.267v.116c-.828 0-1.673.107-2.48-.026-1.068-.178-1.622-.96-1.642-2.038-.022-1.11-.012-2.22-.01-3.328 0-1.483.795-2.297 2.289-2.343.549-.018 1.1 0 1.723 0v-3.052h.006zm-.01 4.296c-.632 0-1.203-.034-1.773.009-.509.039-.925.322-.943.862a45.116 45.116 0 0 0 0 3.583c.03.642.48.903 1.249.894.903-.011 1.43-.3 1.45-.936.049-1.455.017-2.91.017-4.413zm-51.203-3.022c-.996.58-2.112.495-3.193.11-.982-.352-1.424-1.38-1.228-2.54.174-1.025.982-1.748 2.091-1.81.706-.04 1.415-.008 2.178-.008 0-.468.043-.89-.01-1.3-.077-.614-.525-.837-1.092-.845-.82-.01-1.642 0-2.567 0l.297-1.057c.876 0 1.72-.041 2.556.01 1.344.081 2.102.907 2.11 2.253.012 1.819 0 3.637 0 5.62zm-.164-3.021c-.702 0-1.362-.028-2.018.008-.609.035-.984.392-1.019 1.011-.032.583.258 1.037.846 1.077 1.664.114 2.363.148 2.223-1.814-.004-.066-.015-.131-.032-.282zm53.89 5.788c.089-.306.178-.62.277-.966.908 0 1.797-.064 2.672.016 1.288.116 1.99.942 2.004 2.223.01 1.643.013 3.286-.008 4.93 0 .243-.16.485-.267.793l-.754-.526v.19c-.792.068-1.59.217-2.378.184-1.392-.056-2.197-.975-2.181-2.34.016-1.363.873-2.223 2.261-2.277.66-.027 1.32 0 2.012 0 .014-.268.031-.464.032-.658.007-1.158-.319-1.476-1.51-1.48-.667 0-1.335 0-2.003-.008-.039-.01-.076-.045-.156-.081zm3.608 3.507c-.724 0-1.412-.032-2.094.01-.576.035-.862.433-.887.982-.025.519.208.887.735 1.045 1.586.476 2.397-.148 2.306-1.782a1.645 1.645 0 0 0 -.06-.255zm12.406-4.468h1.379l-3.355 10.863h-1.098c.12-.511.182-1.04.369-1.516.442-1.13.25-2.194-.134-3.295-.618-1.78-1.165-3.584-1.737-5.38-.066-.207-.118-.42-.188-.668h1.218l1.753 5.657.21-.007c.52-1.866 1.044-3.73 1.583-5.654zm-57.45-7.58-1.203.3c-.51-1.025-1.432-.802-2.271-.706-.521.058-.802.465-.808.993-.014 1.069-.027 2.131 0 3.196.021.759.413 1.083 1.202 1.1 1.336.026 1.336.026 1.91-.886l1.167.427c-.08.786-.534 1.336-1.202 1.451a8.958 8.958 0 0 1 -2.87.053c-.935-.153-1.43-.948-1.45-1.906a93.01 93.01 0 0 1 0-3.727c.016-.922.535-1.717 1.431-1.839a9.447 9.447 0 0 1 2.818.07c.69.116 1.184.654 1.276 1.475zm-8.836-1.584 2.72-.154v1.132c-.496 0-.978-.01-1.46 0-.782.021-1.133.37-1.136 1.157-.01 1.838 0 3.677 0 5.546h-1.202v-7.828l1.103.251-.024-.104zm59.535 6.033 1.14-.267v11.172h-1.14zm-1.699 10.932h-1.002v-7.805h1.002v7.806zm-1.01-10.18v-1.001h1.015v1h-1.015z" fill="#ececec"/><path d="m44.52 35.502-8.034 2.256c-.044.012-.108-.048-.163-.073.01-.268.028-.535.028-.802v-20.693c2.165-.596 4.285-1.172 6.398-1.766 1.88-.527 3.753-1.07 5.63-1.613.049.162.082.33.098.498.005 6.958.005 13.916 0 20.874 0 .066-.013.134-.028.274l-1.953.497v-4.71l-1.98.535.004 4.721zm1.936-19.74-5.775 1.603v4.782l5.775-1.603zm-7.912 9.848v4.77l3.882-1.057v-4.78z" fill="#ececec"/><path d="m36.202 37.57-6.012-7.914a334.585 334.585 0 0 1 -2.713-3.632 1.069 1.069 0 0 1 -.207-.588c-.008-6.974-.008-13.948 0-20.922 0-.067.013-.134.02-.2 2.88 3.795 5.757 7.592 8.63 11.392.178.249.276.546.28.852.012 7.005.013 14.01.002 21.012zm-1.86-16.142c0-1.259-.106-2.329.023-3.37.234-1.878-1.309-2.717-2.087-4.008a66.548 66.548 0 0 0 -.062 4.15c-.004.217.056.43.172.613.593.825 1.214 1.629 1.955 2.615z" fill="#69768a"/><path d="m36.203 37.57v-21.009a1.504 1.504 0 0 0 -.28-.852 2420.175 2420.175 0 0 0 -8.631-11.391c.776-.267 1.543-.564 2.333-.784 3.215-.9 6.438-1.775 9.736-2.68.82 1.068 1.673 2.156 2.51 3.26 2.126 2.802 4.246 5.608 6.36 8.416.058.09.108.185.149.284-1.87.534-3.75 1.086-5.629 1.612-2.114.595-4.234 1.17-6.398 1.766v20.698c0 .266-.019.533-.028.8zm8.317-2.07v-4.72l1.98-.534v4.714l-1.98.541z" fill="#9eb0b8"/><path d="m46.456 15.762v4.782l-5.774 1.603v-4.776zm-7.912 9.848 3.882-1.069v4.776l-3.882 1.062v-4.77z" fill="#9eb0b8"/><path d="m34.343 21.428c-.74-.982-1.362-1.786-1.955-2.613a1.116 1.116 0 0 1 -.172-.614 66.548 66.548 0 0 1 .063-4.15c.777 1.29 2.32 2.129 2.087 4.009-.13 1.035-.023 2.105-.023 3.368z" fill="#ececec"/></svg>
